SVG_Azure_All/Networking.svg

<?xml version="1.0" encoding="UTF-8" standalone="no"?>
<!-- Generated by Microsoft Visio, SVG Export Networking.svg Page-1 -->

<svg
   xmlns:dc="http://purl.org/dc/elements/1.1/"
   xmlns:cc="http://creativecommons.org/ns#"
   xmlns:rdf="http://www.w3.org/1999/02/22-rdf-syntax-ns#"
   xmlns:svg="http://www.w3.org/2000/svg"
   xmlns="http://www.w3.org/2000/svg"
   xmlns:sodipodi="http://sodipodi.sourceforge.net/DTD/sodipodi-0.dtd"
   xmlns:inkscape="http://www.inkscape.org/namespaces/inkscape"
   width="0.78743833in"
   height="0.78739285in"
   viewBox="0 0 56.695386 56.692284"
   xml:space="preserve"
   class="st7"
   version="1.1"
   id="svg59"
   sodipodi:docname="Networking.svg"
   style="font-size:12px;overflow:visible;color-interpolation-filters:sRGB;fill:none;fill-rule:evenodd;stroke-linecap:square;stroke-miterlimit:3"
   inkscape:version="0.92.5 (2060ec1f9f, 2020-04-08)"><metadata
   id="metadata65"><rdf:RDF><cc:Work
       rdf:about=""><dc:format>image/svg+xml</dc:format><dc:type
         rdf:resource="http://purl.org/dc/dcmitype/StillImage" /></cc:Work></rdf:RDF></metadata><defs
   id="defs63" /><sodipodi:namedview
   pagecolor="#ffffff"
   bordercolor="#666666"
   borderopacity="1"
   objecttolerance="10"
   gridtolerance="10"
   guidetolerance="10"
   inkscape:pageopacity="0"
   inkscape:pageshadow="2"
   inkscape:window-width="640"
   inkscape:window-height="480"
   id="namedview61"
   showgrid="false"
   inkscape:zoom="1.7345798"
   inkscape:cx="37.795221"
   inkscape:cy="22.670633"
   inkscape:window-x="0"
   inkscape:window-y="0"
   inkscape:window-maximized="0"
   inkscape:current-layer="svg59" />
	<style
   type="text/css"
   id="style2">
	<![CDATA[
		.st1 {fill:#59b4d9;stroke:none;stroke-linecap:butt;stroke-width:11.3333}
		.st2 {fill:#a0a1a2;stroke:none;stroke-linecap:butt;stroke-width:11.3333}
		.st3 {fill:#ffffff;fill-opacity:0.2;stroke:none;stroke-linecap:butt;stroke-width:11.3333}
		.st4 {fill:#ffffff;stroke:none;stroke-linecap:butt;stroke-width:11.3333}
		.st5 {fill:#3999c6;stroke:none;stroke-linecap:butt;stroke-width:11.3333}
		.st6 {fill:#57a300;stroke:none;stroke-linecap:butt;stroke-width:11.3333}
		.st7 {fill:none;fill-rule:evenodd;font-size:12px;overflow:visible;stroke-linecap:square;stroke-miterlimit:3}
	]]>
	</style>

	<g
   id="g57"
   transform="translate(-11.333506,-11.331693)">
		<title
   id="title4">Page-1</title>
		<g
   id="group2816-1"
   transform="translate(11.3334,-34.0157)">
			<title
   id="title6">Networking</title>
			<g
   id="group2817-2">
				<title
   id="title8">g22</title>
				<g
   id="shape2818-3"
   transform="translate(0,-22.9859)">
					<title
   id="title10">path4</title>
					<path
   d="m 0,75.65 v 24.8 a 1.58521,1.59354 -180 0 0 1.59,1.59 h 15.34 l 3.7,-3.62 c 2.29,-2.72 4.08,-0.94 4.08,-0.94 v 0.07 c 1.85,1.74 -0.48,3.97 -0.48,3.97 l -0.54,0.52 h 14.1 a 1.58521,1.59354 -180 0 0 1.59,-1.59 v -24.8 z"
   class="st1"
   id="path12"
   inkscape:connector-curvature="0"
   style="fill:#59b4d9;stroke:none;stroke-width:11.33329964;stroke-linecap:butt" />
				</g>
				<g
   id="shape2819-5"
   transform="translate(0,-46.6568)">
					<title
   id="title15">path6</title>
					<path
   d="M 37.79,92.01 H 1.59 A 1.57471,1.58298 -180 0 0 0,93.6 v 8.44 H 39.38 V 93.6 a 1.58521,1.59354 -180 0 0 -1.59,-1.59 z"
   class="st2"
   id="path17"
   inkscape:connector-curvature="0"
   style="fill:#a0a1a2;stroke:none;stroke-width:11.33329964;stroke-linecap:butt" />
				</g>
				<g
   id="shape2820-7"
   transform="translate(0,-22.9226)">
					<title
   id="title20">path8</title>
					<path
   d="M 1.59,68.27 A 1.58521,1.59354 -180 0 0 0,69.87 v 30.6 a 1.58521,1.59354 -180 0 0 1.59,1.57 H 3.31 L 34.35,68.27 Z"
   class="st3"
   id="path22"
   inkscape:connector-curvature="0"
   style="fill:#ffffff;fill-opacity:0.2;stroke:none;stroke-width:11.33329964;stroke-linecap:butt" />
				</g>
				<g
   id="shape2821-9"
   transform="translate(10.1201,-49.7911)">
					<title
   id="title25">path10</title>
					<rect
   x="0"
   y="98.918297"
   width="26.518101"
   height="3.12375"
   class="st4"
   id="rect27"
   style="fill:#ffffff;stroke:none;stroke-width:11.33329964;stroke-linecap:butt" />
				</g>
				<g
   id="shape2822-11"
   transform="translate(2.34689,-48.6708)">
					<title
   id="title30">path12</title>
					<path
   d="M 6.56,99.3 A 3.84229,3.86248 0 1 1 2.71,95.44 3.84229,3.86248 0 0 1 6.56,99.3 Z"
   class="st1"
   id="path32"
   inkscape:connector-curvature="0"
   style="fill:#59b4d9;stroke:none;stroke-width:11.33329964;stroke-linecap:butt" />
				</g>
				<g
   id="shape2823-13"
   transform="translate(3.12842,-29.7611)">
					<title
   id="title35">path14</title>
					<path
   d="m 1.53,80.83 1.75,1.86 H 2.33 L 0,80.45 2.32,78.22 h 0.94 l -1.73,1.84 h 4.24 v 0.77 z m 9.06,19.67 a 1.41724,1.42468 0 0 1 -0.48,1.11 1.82666,1.83626 0 0 1 -1.26,0.43 1.72168,1.73073 0 0 1 -1.19,-0.44 1.40674,1.41413 0 0 1 -0.49,-1.06 1.37524,1.38247 0 0 1 0.49,-1.05 1.81616,1.82571 0 0 1 1.24,-0.42 1.75317,1.76239 0 0 1 1.21,0.43 1.38574,1.39302 0 0 1 0.48,1 z m 7.02,0 a 1.41724,1.42468 0 0 1 -0.49,1.11 1.82666,1.83626 0 0 1 -1.26,0.43 1.72168,1.73073 0 0 1 -1.14,-0.44 1.40674,1.41413 0 0 1 -0.5,-1.06 1.37524,1.38247 0 0 1 0.5,-1.16 1.81616,1.82571 0 0 1 1.24,-0.42 1.75317,1.76239 0 0 1 1.2,0.43 1.38574,1.39302 0 0 1 0.45,1.11 z m 7.01,0 a 1.41724,1.42468 0 0 1 -0.45,1.11 1.82666,1.83626 0 0 1 -1.26,0.43 1.72168,1.73073 0 0 1 -1.19,-0.44 1.40674,1.41413 0 0 1 -0.49,-1.06 1.37524,1.38247 0 0 1 0.49,-1.05 1.81616,1.82571 0 0 1 1.24,-0.42 1.75317,1.76239 0 0 1 1.21,0.31 1.38574,1.39302 0 0 1 0.45,1.12 z"
   class="st4"
   id="path37"
   inkscape:connector-curvature="0"
   style="fill:#ffffff;stroke:none;stroke-width:11.33329964;stroke-linecap:butt" />
				</g>
				<g
   id="shape2824-15"
   transform="translate(9.69675)">
					<title
   id="title40">path16</title>
					<path
   d="m 46.68,89.19 a 1.28076,1.28749 -180 0 0 0,-1.7 l -2.26,-2.27 -10.13,-9.9 a 1.0498,1.05532 -180 0 0 -1.6,0 1.11279,1.11864 -180 0 0 0,1.7 L 43.3,87.49 a 1.18628,1.19251 0 0 1 0,1.7 l -10.79,10.84 a 1.18628,1.19251 -180 0 0 0,1.69 1.16528,1.17141 -180 0 0 1.59,0 l 10.04,-9.99 0.09,-0.09 z m -46.36,0 a 1.28076,1.28749 0 0 1 0,-1.7 l 2.26,-2.27 10.13,-9.91 a 1.0498,1.05532 0 0 1 1.59,0 1.11279,1.11864 0 0 1 0,1.7 L 3.89,87.48 a 1.18628,1.19251 -180 0 0 0,1.7 l 10.56,10.85 a 1.18628,1.19251 0 0 1 0,1.69 1.16528,1.17141 0 0 1 -1.6,0 L 2.67,91.78 2.58,91.69 Z"
   class="st5"
   id="path42"
   inkscape:connector-curvature="0"
   style="fill:#3999c6;stroke:none;stroke-width:11.33329964;stroke-linecap:butt" />
				</g>
				<g
   id="shape2825-17"
   transform="translate(20.4292,-10.5965)">
					<title
   id="title45">path18</title>
					<path
   d="M 6.38,98.93 A 3.14941,3.16596 0 0 1 3.29,102.04 3.43286,3.4509 0 0 1 0,98.93 3.14941,3.16596 0 0 1 3.29,95.82 3.06543,3.08154 0 0 1 6.38,98.93 Z m 9.48,0 a 3.14941,3.16596 0 0 1 -3.09,3.11 3.43286,3.4509 0 0 1 -3.29,-3.11 3.29639,3.31371 0 0 1 3.29,-3.11 3.14941,3.16596 0 0 1 3.09,3.11 z"
   class="st6"
   id="path47"
   inkscape:connector-curvature="0"
   style="fill:#57a300;stroke:none;stroke-width:11.33329964;stroke-linecap:butt" />
				</g>
				<g
   id="shape2826-19"
   transform="translate(39.6721,-10.5965)">
					<title
   id="title50">circle20</title>
					<ellipse
   cx="3.09692"
   cy="98.928802"
   rx="3.09692"
   ry="3.1131999"
   class="st6"
   id="ellipse52"
   style="fill:#57a300;stroke:none;stroke-width:11.33329964;stroke-linecap:butt" />
				</g>
			</g>
		</g>
	</g>
</svg>

<?xml version="1.0" encoding="UTF-8" standalone="no"?>
<!DOCTYPE svg PUBLIC "-//W3C//DTD SVG 1.1//EN" "http://www.w3.org/Graphics/SVG/1.1/DTD/svg11.dtd">
<!-- Generated by Microsoft Visio, SVG Export Networking.svg Page-1 -->
<svg xmlns="http://www.w3.org/2000/svg" xmlns:xlink="http://www.w3.org/1999/xlink" xmlns:ev="http://www.w3.org/2001/xml-events"
		width="1.10222in" height="1.41725in" viewBox="0 0 79.3596 102.042" xml:space="preserve" color-interpolation-filters="sRGB"
		class="st7">
	<style type="text/css">
	<![CDATA[
		.st1 {fill:#59b4d9;stroke:none;stroke-linecap:butt;stroke-width:11.3333}
		.st2 {fill:#a0a1a2;stroke:none;stroke-linecap:butt;stroke-width:11.3333}
		.st3 {fill:#ffffff;fill-opacity:0.2;stroke:none;stroke-linecap:butt;stroke-width:11.3333}
		.st4 {fill:#ffffff;stroke:none;stroke-linecap:butt;stroke-width:11.3333}
		.st5 {fill:#3999c6;stroke:none;stroke-linecap:butt;stroke-width:11.3333}
		.st6 {fill:#57a300;stroke:none;stroke-linecap:butt;stroke-width:11.3333}
		.st7 {fill:none;fill-rule:evenodd;font-size:12px;overflow:visible;stroke-linecap:square;stroke-miterlimit:3}
	]]>
	</style>

	<g>
		<title>Page-1</title>
		<g id="group2790-1" transform="translate(11.3334,-34.0157)">
			<title>Networking</title>
			<g id="group2791-2">
				<title>g22</title>
				<g id="shape2792-3" transform="translate(2.8777E-13,-22.9859)">
					<title>path4</title>
					<path d="M0 75.65 L0 100.45 A1.58521 1.59354 -180 0 0 1.59 102.04 L16.93 102.04 L20.63 98.42 C22.92 95.7 24.71
								 97.48 24.71 97.48 L24.71 97.55 C26.56 99.29 24.23 101.52 24.23 101.52 L23.69 102.04 L37.79 102.04
								 A1.58521 1.59354 -180 0 0 39.38 100.45 L39.38 75.65 L0 75.65 Z" class="st1"/>
				</g>
				<g id="shape2793-5" transform="translate(2.8777E-13,-46.6568)">
					<title>path6</title>
					<path d="M37.79 92.01 L1.59 92.01 A1.57471 1.58298 -180 0 0 -0 93.6 L0 102.04 L39.38 102.04 L39.38 93.6 A1.58521
								 1.59354 -180 0 0 37.79 92.01 Z" class="st2"/>
				</g>
				<g id="shape2794-7" transform="translate(-2.8777E-13,-22.9226)">
					<title>path8</title>
					<path d="M1.59 68.27 A1.58521 1.59354 -180 0 0 -0 69.87 L0 100.47 A1.58521 1.59354 -180 0 0 1.59 102.04 L3.31
								 102.04 L34.35 68.27 L1.59 68.27 Z" class="st3"/>
				</g>
				<g id="shape2795-9" transform="translate(10.1201,-49.7911)">
					<title>path10</title>
					<rect x="0" y="98.9183" width="26.5181" height="3.12375" class="st4"/>
				</g>
				<g id="shape2796-11" transform="translate(2.34689,-48.6708)">
					<title>path12</title>
					<path d="M6.56 99.3 A3.84229 3.86248 0 1 1 2.71 95.44 A3.84229 3.86248 0 0 1 6.56 99.3 Z" class="st1"/>
				</g>
				<g id="shape2797-13" transform="translate(3.12842,-29.7611)">
					<title>path14</title>
					<path d="M1.53 80.83 L3.28 82.69 L2.33 82.69 L0 80.45 L2.32 78.22 L3.26 78.22 L1.53 80.06 L5.77 80.06 L5.77 80.83
								 L1.53 80.83 ZM10.59 100.5 A1.41724 1.42468 0 0 1 10.11 101.61 A1.82666 1.83626 0 0 1 8.85 102.04
								 A1.72168 1.73073 0 0 1 7.66 101.6 A1.40674 1.41413 0 0 1 7.17 100.54 A1.37524 1.38247 0 0 1 7.66
								 99.49 A1.81616 1.82571 0 0 1 8.9 99.07 A1.75317 1.76239 0 0 1 10.11 99.5 A1.38574 1.39302 0 0 1
								 10.59 100.5 ZM17.61 100.5 A1.41724 1.42468 0 0 1 17.12 101.61 A1.82666 1.83626 0 0 1 15.86 102.04
								 A1.72168 1.73073 0 0 1 14.72 101.6 A1.40674 1.41413 0 0 1 14.22 100.54 A1.37524 1.38247 0 0 1 14.72
								 99.38 A1.81616 1.82571 0 0 1 15.96 98.96 A1.75317 1.76239 0 0 1 17.16 99.39 A1.38574 1.39302 0 0
								 1 17.61 100.5 ZM24.62 100.5 A1.41724 1.42468 0 0 1 24.17 101.61 A1.82666 1.83626 0 0 1 22.91 102.04
								 A1.72168 1.73073 0 0 1 21.72 101.6 A1.40674 1.41413 0 0 1 21.23 100.54 A1.37524 1.38247 0 0 1 21.72
								 99.49 A1.81616 1.82571 0 0 1 22.96 99.07 A1.75317 1.76239 0 0 1 24.17 99.38 A1.38574 1.39302 0 0
								 1 24.62 100.5 Z" class="st4"/>
				</g>
				<g id="shape2798-15" transform="translate(9.69675,0)">
					<title>path16</title>
					<path d="M46.68 89.19 A1.28076 1.28749 -180 0 0 46.68 87.49 L44.42 85.22 L34.29 75.32 A1.0498 1.05532 -180 0
								 0 32.69 75.32 A1.11279 1.11864 -180 0 0 32.69 77.02 L43.3 87.49 A1.18628 1.19251 0 0 1 43.3 89.19
								 L32.51 100.03 A1.18628 1.19251 -180 0 0 32.51 101.72 A1.16528 1.17141 -180 0 0 34.1 101.72 L44.14
								 91.73 L44.23 91.64 L46.68 89.19 ZM0.32 89.19 A1.28076 1.28749 0 0 1 0.32 87.49 L2.58 85.22 L12.71
								 75.31 A1.0498 1.05532 0 0 1 14.3 75.31 A1.11279 1.11864 0 0 1 14.3 77.01 L3.89 87.48 A1.18628 1.19251
								 -180 0 0 3.89 89.18 L14.45 100.03 A1.18628 1.19251 0 0 1 14.45 101.72 A1.16528 1.17141 0 0 1 12.85
								 101.72 L2.67 91.78 L2.58 91.69 L0.32 89.19 Z" class="st5"/>
				</g>
				<g id="shape2799-17" transform="translate(20.4292,-10.5965)">
					<title>path18</title>
					<path d="M6.38 98.93 A3.14941 3.16596 0 0 1 3.29 102.04 A3.43286 3.4509 0 0 1 0 98.93 A3.14941 3.16596 0 0 1
								 3.29 95.82 A3.06543 3.08154 0 0 1 6.38 98.93 ZM15.86 98.93 A3.14941 3.16596 0 0 1 12.77 102.04 A3.43286
								 3.4509 0 0 1 9.48 98.93 A3.29639 3.31371 0 0 1 12.77 95.82 A3.14941 3.16596 0 0 1 15.86 98.93 Z"
							class="st6"/>
				</g>
				<g id="shape2800-19" transform="translate(39.6721,-10.5965)">
					<title>circle20</title>
					<ellipse cx="3.09692" cy="98.9288" rx="3.09692" ry="3.1132" class="st6"/>
				</g>
			</g>
		</g>
	</g>
</svg>
